lib/functional/design/rows.svg

<svg xmlns="http://www.w3.org/2000/svg" fill="none" stroke="currentColor" aria-hidden="true" viewBox="0 0 32 32"><g id="Icon-Rows"><g clip-path="url(#clip0_8_528)"><g id="size=md (32px)"><g id="Rows"><path id="Vector" stroke-linecap="round" stroke-linejoin="round" stroke-width="2" d="M26 18H6C5.44772 18 5 18.4477 5 19V24C5 24.5523 5.44772 25 6 25H26C26.5523 25 27 24.5523 27 24V19C27 18.4477 26.5523 18 26 18Z"/><path id="Vector_2" stroke-linecap="round" stroke-linejoin="round" stroke-width="2" d="M26 7H6C5.44772 7 5 7.44772 5 8V13C5 13.5523 5.44772 14 6 14H26C26.5523 14 27 13.5523 27 13V8C27 7.44772 26.5523 7 26 7Z"/></g></g></g></g><defs><clipPath id="clip0_8_528"><rect width="32" height="32" fill="white" rx="5"/></clipPath></defs></svg>

<svg xmlns="http://www.w3.org/2000/svg" fill="none" stroke="currentColor" aria-hidden="true" viewBox="0 0 32 32"><path stroke-linecap="round" stroke-linejoin="round" stroke-width="2" d="M26 18H6a1 1 0 0 0-1 1v5a1 1 0 0 0 1 1h20a1 1 0 0 0 1-1v-5a1 1 0 0 0-1-1Zm0-11H6a1 1 0 0 0-1 1v5a1 1 0 0 0 1 1h20a1 1 0 0 0 1-1V8a1 1 0 0 0-1-1Z"/></svg>
